symbolic/22x22/apps/ibus-typing-booster.svg

<svg xmlns="http://www.w3.org/2000/svg" width="22" height="22" version="1.1">
 <path style="opacity:0.2" d="M 2.7006581,16.907384 C 1.0868085,18.534391 1,21.5 1,21.5 1,21.5 3.9396527,21.41248 5.5554753,19.785476 7.1712979,18.158469 7.8401182,16.19532 7.0509495,15.401707 6.2617812,14.606104 4.3145079,15.280377 2.7006581,16.907384 Z"/>
 <path style="opacity:0.2" d="m 2.6121188,10.538371 c -0.1933463,0.167076 -0.124294,0.465427 0.1124565,0.49924 0.6550099,0.09348 1.9709484,0.03182 2.7956293,0.863229 0.8049521,0.811515 0.9726501,1.96116 0.9726501,1.96116 L 8.8721978,8.784067 c 0,0 -1.2587237,-0.5947126 -3.0895945,-0.115362 -1.2626696,0.332164 -2.5154746,1.30081 -3.1704845,1.869666 z"/>
 <path style="opacity:0.2" d="m 12.01845,19.893555 c -0.197293,0.161109 -0.461664,0.125307 -0.495203,-0.113374 -0.09273,-0.66035 -0.03157,-1.987017 -0.856249,-2.818422 C 9.8620469,16.150245 8.5539999,16.030904 8.5539999,16.030904 l 4.9244111,-2.446477 c 0,0 0.927273,1.44203 0.416287,3.494684 -0.426151,1.696622 -1.154159,2.219731 -1.876248,2.814444 z"/>
 <path style="fill:#ffd800" d="M 2.7006581,16.407389 C 1.0868085,18.034396 1,21.000004 1,21.000004 c 0,0 2.9396527,-0.08752 4.5554753,-1.714523 1.6158226,-1.627008 2.2846429,-3.590157 1.4954742,-4.38377 -0.7891683,-0.795603 -2.7364416,-0.121329 -4.3502914,1.505678 z"/>
 <path style="fill:#ff562e" d="m 3.0712876,17.109987 c -1.0160545,1.024338 -1.0712963,2.890026 -1.0712963,2.890026 0,0 1.8506002,-0.05569 2.8666549,-1.08003 1.0160543,-1.024339 1.4382592,-2.2615 0.9410834,-2.760741 -0.4971762,-0.499241 -1.7184147,-0.07558 -2.736442,0.950745 z"/>
 <path style="opacity:0.1" d="m 5.0094525,17.629876 c 0.9667312,1.04025 2.2353193,0.930855 2.3398844,0.7598 L 8.733086,16.491605 c 0.053269,-0.08752 0.00395,-0.226747 -0.03354,-0.262549 L 6.314284,13.774489 c -0.037485,-0.03779 -0.1696711,-0.08155 -0.2564798,-0.02785 l -1.9361669,1.391008 c -0.1676982,0.105418 -0.357099,1.149646 0.8878149,2.492225 z"/>
 <path style="fill:#546e7a" d="m 5.0094525,17.12988 c 0.9667312,1.04025 2.2353193,0.930855 2.3398844,0.7598 L 8.733086,15.99161 c 0.053269,-0.08752 0.00395,-0.226747 -0.03354,-0.262549 L 6.314284,13.274493 c -0.037485,-0.03779 -0.1696711,-0.08155 -0.2564798,-0.02784 l -1.9361669,1.391008 c -0.1676982,0.105418 -0.357099,1.149646 0.8878149,2.492225 z"/>
 <path style="fill:#0292e1" d="m 12.01845,19.393559 c -0.197293,0.16111 -0.461664,0.125307 -0.495203,-0.113373 -0.09273,-0.66035 -0.03157,-1.987017 -0.856249,-2.818422 C 9.8620469,15.650249 8.5539999,15.530909 8.5539999,15.530909 l 4.9244111,-2.446478 c 0,0 0.927273,1.44203 0.416287,3.494684 -0.426151,1.696623 -1.154159,2.219731 -1.876248,2.814444 z"/>
 <path style="fill:#0292e1" d="m 2.6121188,10.038375 c -0.1933463,0.167077 -0.124294,0.465428 0.1124565,0.499241 0.6550099,0.09348 1.9709484,0.03182 2.7956293,0.863228 0.8049521,0.811515 0.9726501,1.961161 0.9726501,1.961161 L 8.8721978,8.2840716 c 0,0 -1.2587237,-0.5947129 -3.0895945,-0.1153625 C 4.5199337,8.500873 3.2671287,9.469519 2.6121188,10.038375 Z"/>
 <path style="opacity:0.2;fill:#ffffff" d="M 7.0380341,7.9849257 C 6.6625623,7.9965806 6.2399029,8.0486801 5.7821853,8.1685181 4.5195157,8.500682 3.2673006,9.469763 2.6122907,10.038619 c -0.169178,0.146192 -0.1379283,0.392563 0.03125,0.474605 0.6617996,-0.57157 1.892549,-1.516907 3.1386448,-1.84471 1.4250038,-0.3730885 2.4825057,-0.101355 2.8906002,0.04004 L 8.8720028,8.2837521 c 0,0 -0.7075539,-0.3337881 -1.8339687,-0.2988264 z"/>
 <path style="opacity:0.2" d="m 20.176593,1.5005857 c -0.09617,6.45e-4 -0.20197,0.00796 -0.31738,0.021484 C 17.410676,1.8079542 16.443125,1.9933257 15.0282,2.5708891 13.635087,3.1063995 11.916726,4.138848 10.924719,5.1333669 6.9723461,9.095751 4.7963618,13.997969 6.69624,15.710425 c 0.115441,0.103963 0.2429299,0.188077 0.3720673,0.280271 2.2148936,1.571223 6.4959167,-0.647281 10.3719807,-4.533165 0.948961,-0.951363 1.931678,-2.6210793 2.446269,-3.9765277 0.652298,-1.6824681 0.919572,-2.8235568 1.097647,-4.7880449 0.0796,-0.8704501 -0.134384,-1.1968887 -0.807611,-1.1923727 z"/>
 <path style="fill:#bebebe" d="m 15.028176,2.0706696 c 0.792431,0.3648532 1.795902,1.0091421 2.815301,2.0311232 0.360018,0.3609304 0.667208,0.7297062 0.933308,1.0906366 0.514591,0.69636 0.878872,1.2686771 1.109753,1.7884952 C 19.371947,8.3363734 18.389374,10.006138 17.440413,10.957502 13.564349,14.843385 9.2832639,17.061928 7.0683703,15.490705 6.9392329,15.398511 6.8120535,15.314163 6.6966125,15.210199 4.7967343,13.497744 6.9724956,8.5957642 10.924869,4.6333802 11.916875,3.6388609 13.635062,2.6061799 15.028176,2.0706696 Z"/>
 <path style="fill:#e53935" d="m 15.028176,2.0706696 c -0.358088,1.7635965 2.762104,5.2173878 4.858362,4.910255 0.652298,-1.6824676 0.919412,-2.8240728 1.097487,-4.788561 0.09097,-0.9948 -0.201303,-1.2787525 -1.124585,-1.17058 -2.448538,0.2858842 -3.416339,0.4713226 -4.831264,1.048886 z"/>
 <circle style="opacity:0.1" cx="3.889" cy="15.91" r="2" transform="rotate(-45)"/>
 <circle style="fill:#455a64" cx="4.242" cy="15.556" r="2" transform="rotate(-45)"/>
 <circle style="opacity:0.1" cx="-1.768" cy="15.91" r="1" transform="rotate(-45.000001)"/>
 <circle style="fill:#455a64" cx="-1.414" cy="15.556" r="1" transform="rotate(-45.000001)"/>
 <path style="opacity:0.2;fill:#ffffff" d="m 20.176593,1.0001759 c -0.09617,6.45e-4 -0.20197,0.00796 -0.31738,0.021484 C 17.410676,1.3075443 16.443125,1.4929159 15.0282,2.0704793 13.635087,2.6059897 11.916726,3.638438 10.924719,4.6329572 7.8561561,7.7092933 5.8684591,11.345375 6.0175348,13.622138 6.1555091,11.335784 8.0726082,7.9922884 10.924719,5.1329529 11.916726,4.138434 13.635087,3.1059854 15.0282,2.570475 c 1.414925,-0.5775635 2.382476,-0.7629351 4.831013,-1.0488192 0.11541,-0.013522 0.221205,-0.020839 0.31738,-0.021484 0.507512,-0.0034 0.753049,0.1824526 0.809563,0.6464789 0.06708,-0.8336998 -0.14913,-1.1509048 -0.809563,-1.1464748 z"/>
</svg>

<svg xmlns="http://www.w3.org/2000/svg" width="22" height="22"><path style="opacity:.2" d="M2.7 16.907C1.088 18.534 1 21.5 1 21.5s2.94-.088 4.555-1.715c1.616-1.627 2.285-3.59 1.496-4.383-.79-.796-2.736-.122-4.35 1.505zM2.612 10.538c-.193.167-.124.466.113.5.655.093 1.97.031 2.795.863.805.811.973 1.961.973 1.961l2.38-5.078s-1.26-.595-3.09-.115c-1.263.332-2.516 1.3-3.17 1.87zM12.018 19.894c-.197.16-.461.125-.495-.114-.092-.66-.031-1.987-.856-2.818-.805-.812-2.113-.931-2.113-.931l4.924-2.447s.928 1.442.417 3.495c-.426 1.697-1.154 2.22-1.877 2.815z"/><path style="fill:#ffd800" d="M2.7 16.407C1.088 18.034 1 21 1 21s2.94-.088 4.555-1.715c1.616-1.627 2.285-3.59 1.496-4.383-.79-.796-2.736-.122-4.35 1.505z"/><path style="fill:#ff562e" d="M3.071 17.11C2.055 18.134 2 20 2 20s1.85-.056 2.867-1.08c1.016-1.024 1.438-2.262.94-2.76-.496-.5-1.718-.076-2.736.95z"/><path style="opacity:.1" d="M5.01 17.63c.966 1.04 2.235.93 2.34.76l1.383-1.898c.053-.088.004-.227-.033-.263l-2.386-2.455c-.037-.037-.17-.081-.256-.027l-1.936 1.39c-.168.106-.357 1.15.887 2.493z"/><path style="fill:#546e7a" d="M5.01 17.13c.966 1.04 2.235.93 2.34.76l1.383-1.898c.053-.088.004-.227-.033-.263l-2.386-2.455c-.037-.037-.17-.081-.256-.027l-1.936 1.39c-.168.106-.357 1.15.887 2.493z"/><path style="fill:#0292e1" d="M12.018 19.394c-.197.16-.461.125-.495-.114-.092-.66-.031-1.987-.856-2.818-.805-.812-2.113-.931-2.113-.931l4.924-2.447s.928 1.442.417 3.495c-.426 1.697-1.154 2.22-1.877 2.815zM2.612 10.038c-.193.167-.124.466.113.5.655.093 1.97.031 2.795.863.805.811.973 1.961.973 1.961l2.38-5.078s-1.26-.595-3.09-.115c-1.263.332-2.516 1.3-3.17 1.87z"/><path style="opacity:.2;fill:#fff" d="M7.038 7.985a5.643 5.643 0 0 0-1.256.184c-1.262.332-2.515 1.3-3.17 1.87-.169.146-.138.392.032.474.661-.571 1.892-1.517 3.138-1.844 1.425-.374 2.483-.102 2.89.04l.2-.425s-.708-.334-1.834-.3z"/><path style="opacity:.2" d="M20.177 1.5c-.097.001-.202.009-.318.022-2.448.286-3.416.471-4.83 1.049-1.394.535-3.112 1.568-4.104 2.562-3.953 3.963-6.129 8.865-4.229 10.577.116.104.243.189.372.28 2.215 1.572 6.496-.647 10.372-4.532.95-.952 1.932-2.622 2.447-3.977.652-1.682.92-2.824 1.097-4.788.08-.87-.134-1.197-.807-1.192z"/><path style="fill:#bebebe" d="M15.028 2.07c.793.366 1.796 1.01 2.815 2.032.36.36.668.73.934 1.09.514.697.879 1.27 1.11 1.789-.515 1.355-1.498 3.025-2.447 3.977-3.876 3.885-8.157 6.104-10.372 4.533-.129-.092-.256-.177-.371-.28-1.9-1.713.275-6.615 4.228-10.578.992-.994 2.71-2.027 4.103-2.562z"/><path style="fill:#e53935" d="M15.028 2.07c-.358 1.764 2.762 5.218 4.859 4.91.652-1.682.919-2.823 1.097-4.788.091-.994-.201-1.278-1.125-1.17-2.448.286-3.416.471-4.83 1.049z"/><circle style="opacity:.1" cx="3.889" cy="15.91" r="2" transform="rotate(-45)"/><circle style="fill:#455a64" cx="4.242" cy="15.556" r="2" transform="rotate(-45)"/><circle style="opacity:.1" cx="-1.768" cy="15.91" r="1" transform="rotate(-45)"/><circle style="fill:#455a64" cx="-1.414" cy="15.556" r="1" transform="rotate(-45)"/><path style="opacity:.2;fill:#fff" d="M20.177 1c-.097 0-.202.008-.318.022-2.448.286-3.416.47-4.83 1.048-1.394.536-3.112 1.568-4.104 2.563-3.069 3.076-5.057 6.712-4.907 8.99.138-2.287 2.055-5.63 4.907-8.49.992-.995 2.71-2.027 4.103-2.563 1.415-.577 2.383-.762 4.831-1.048.116-.014.221-.021.318-.022.507-.003.753.183.81.647.066-.834-.15-1.151-.81-1.147z"/></svg>
